icons/outline/chart-column.svg

<!--
tags: [analytics, data, visualization, bar, statistics, vertical, graph, comparison, display, presentation]
category: Charts
unicode: "ffa5"
version: "3.12"
-->
<svg
  xmlns="http://www.w3.org/2000/svg"
  width="24"
  height="24"
  viewBox="0 0 24 24"
  fill="none"
  stroke="currentColor"
  stroke-width="2"
  stroke-linecap="round"
  stroke-linejoin="round"
>
  <path d="M4 20h3m10 0h3m-9.5 0h3m-9.5 -4h3m10 0h3m-9.5 0h3m-9.5 -4h3m10 0h3m-9.5 0h3m-9.5 -4h3m10 0h3m-16 -4h3" />
</svg>

<!--
tags: [analytics, data, visualization, bar, statistics, vertical, graph, comparison, display, presentation]
category: Charts
unicode: "ffa5"
version: "3.12"
-->
<svg
  xmlns="http://www.w3.org/2000/svg"
  width="24"
  height="24"
  viewBox="0 0 24 24"
  fill="none"
  stroke="currentColor"
  stroke-width="2"
  stroke-linecap="round"
  stroke-linejoin="round"
>
    <path d="M4 20h3M17 20h3M10.5 20h3M4 16h3M17 16h3M10.5 16h3M4 12h3M17 12h3M10.5 12h3M4 8h3M17 8h3M4 4h3" />
</svg>
